X:111
T:The Free Lunch
R:barn dance
C: 2004, 2010 L.E. McCullough  
M:4/4
L:1/8
K:G
GE|:DEGA B2AG|egdB A2GE|DEGA B2AG|egdB G2GE|
DEGA B2AG|egdB A2ga|bgaf (3gfe dB|1 (3efg dB G2GE:|2 (3efg dB G2ga|]
|:bgfg dGBd|DGBd e2dB|e2dB gGBd|(3efg dB A2ga|bgfg dGBd|
DGBd e2dB|1 e2dB gGBd|(3efg dB G2ga:|[2 dGBd gfed|(3efg dB G2GE|]
<end>
<start>
